X: 10343
M: 3/4
L: 1/8
K: G
edBDGB | edBDGB | dcADFA | cBGDGB |\
edBDGB | edBDGB | dcADFA | G3 :: Adf |\
bafAdf | bafAdf | ageAce |
gfdAdf |\
bafAdf | bafAdf | ageAce | "^D.C."d3 :|\


